Origami/16x16/apps/mathematica.svg

<svg xmlns="http://www.w3.org/2000/svg" width="16" height="16" version="1.1" viewBox="0 0 16 16">
 <path style="fill:#d6342a;fill-rule:evenodd" d="M 7.5178432,3.9782004e-4 A 0.44934476,0.45719197 0 0 0 7.111104,0.22658996 L 5.7655448,2.5706547 3.3224772,1.4794266 A 0.44934476,0.45719197 0 0 0 2.6948906,1.943567 L 2.960492,4.6449261 0.35361713,5.2232042 A 0.44934476,0.45719197 0 0 0 0.1139028,5.9741027 L 1.8893099,8.0007545 0.11419534,10.027704 a 0.44934476,0.45719197 0 0 0 0.23986058,0.75075 l 2.60702148,0.577683 -0.2650168,2.701359 a 0.44934476,0.45719197 0 0 0 0.6277326,0.463992 L 5.7667144,13.429812 7.112859,15.77358 a 0.44934476,0.45719197 0 0 0 0.7758908,-1.53e-4 l 1.3457052,-2.344064 2.442922,1.091079 a 0.44934476,0.45719197 0 0 0 0.627732,-0.464141 l -0.265602,-2.701061 2.606875,-0.578427 a 0.44934476,0.45719197 0 0 0 0.239715,-0.750899 L 13.11069,7.9994153 14.885804,5.9723171 A 0.44934476,0.45719197 0 0 0 14.645944,5.2215674 L 12.038776,4.6438845 12.303793,1.9425253 A 0.44934476,0.45719197 0 0 0 11.67606,1.4785338 L 9.2332846,2.5703571 7.8869944,0.22644116 A 0.44934476,0.45719197 0 0 0 7.5178432,3.9782004e-4 Z"/>
 <path style="fill:#ffffff;fill-rule:evenodd" d="M 3.9648438 4 C 3.9648438 4 4.7317146 6.0574951 4.3457031 7.3769531 C 3.9596919 8.6964104 2 10.181641 2 10.181641 C 2 10.181641 4.5622236 10.323078 5.5351562 10.951172 C 6.5080893 11.579266 7.4980469 14 7.4980469 14 C 7.4980469 14 8.8116833 11.332846 9.3613281 10.951172 C 9.9109726 10.569499 13 10.179688 13 10.179688 C 13 10.179688 10.742757 8.0325631 10.550781 7.4335938 C 10.358805 6.8346216 11.035156 4.0019531 11.035156 4.0019531 C 11.035156 4.0019531 8.8689819 5 7.4414062 5 C 6.0138303 5 3.9648438 4 3.9648438 4 z M 9.7050781 5.5273438 C 9.6449 5.8674405 9.5847293 6.2160085 9.5507812 6.5410156 C 9.5095718 6.9355427 9.4275517 7.2075484 9.5976562 7.7382812 C 9.7665461 8.2652214 9.9818999 8.439791 10.246094 8.7558594 C 10.448361 8.9978423 10.686823 9.2507084 10.919922 9.4980469 C 10.581218 9.5601514 10.236048 9.6223816 9.9238281 9.6992188 C 9.518518 9.798965 9.223228 9.8307316 8.7910156 10.130859 C 8.3588353 10.430966 8.2279059 10.697829 8.0039062 11.037109 C 7.8286457 11.302568 7.6589048 11.601922 7.4921875 11.894531 C 7.1396051 11.25691 6.7902806 10.571073 6.078125 10.111328 C 5.4450704 9.7026485 4.7378841 9.6112073 4.0625 9.4980469 C 4.5451419 8.9797712 5.0749643 8.4501154 5.3066406 7.6582031 C 5.5309343 6.8915262 5.3947065 6.1945919 5.2851562 5.5371094 C 5.9459476 5.7571851 6.660321 6 7.4414062 6 C 8.2472489 6 9.0096535 5.7536607 9.7050781 5.5273438 z"/>
</svg>

<svg width="16" height="16" version="1.1" viewBox="0 0 16 16" xmlns="http://www.w3.org/2000/svg">
 <path d="m7.5178432 3.9782004e-4a0.44934476 0.45719197 0 0 0 -0.4067392 0.22619214l-1.3455592 2.3440647-2.4430676-1.0912281a0.44934476 0.45719197 0 0 0 -0.6275866 0.4641404l0.2656014 2.7013591-2.6068749 0.5782781a0.44934476 0.45719197 0 0 0 -0.23971433 0.7508985l1.7754071 2.0266518-1.7751146 2.0269495a0.44934476 0.45719197 0 0 0 0.23986058 0.75075l2.6070215 0.577683-0.2650168 2.701359a0.44934476 0.45719197 0 0 0 0.6277326 0.463992l2.4429212-1.091676 1.3461446 2.343768a0.44934476 0.45719197 0 0 0 0.7758908 -1.53e-4l1.3457052-2.344064 2.442922 1.091079a0.44934476 0.45719197 0 0 0 0.627732 -0.464141l-0.265602-2.701061 2.606875-0.578427a0.44934476 0.45719197 0 0 0 0.239715 -0.750899l-1.775407-2.0264987 1.775114-2.0270982a0.44934476 0.45719197 0 0 0 -0.23986 -0.7507497l-2.607168-0.5776829 0.265017-2.7013592a0.44934476 0.45719197 0 0 0 -0.627733 -0.4639915l-2.4427754 1.0918233-1.3462902-2.3439159a0.44934476 0.45719197 0 0 0 -0.3691512 -0.22604334z" style="fill-rule:evenodd;fill:#d6342a"/>
 <path d="m3.9648438 4s0.7668708 2.0574951 0.3808593 3.3769531c-0.3860112 1.3194573-2.3457031 2.8046879-2.3457031 2.8046879s2.5622236 0.141437 3.5351562 0.769531c0.9729331 0.628094 1.9628907 3.048828 1.9628907 3.048828s1.3136364-2.667154 1.8632812-3.048828c0.5496445-0.381673 3.6386719-0.771484 3.6386719-0.771484s-2.257243-2.1471249-2.449219-2.7460942c-0.191976-0.5989722 0.484375-3.4316407 0.484375-3.4316407s-2.1661741 0.9980469-3.5937498 0.9980469c-1.4275759 0-3.4765624-1-3.4765624-1zm5.7402343 1.5273438c-0.0601781 0.3400967-0.1203488 0.6886647-0.1542969 1.0136718-0.0412094 0.3945271-0.1232295 0.6665328 0.046875 1.1972656 0.1688899 0.5269402 0.3842437 0.7015098 0.6484378 1.0175782 0.202267 0.2419829 0.440729 0.494849 0.673828 0.7421875-0.338704 0.0621045-0.683874 0.1243347-0.9960939 0.2011719-0.4053101 0.0997462-0.7006001 0.1315128-1.1328125 0.4316402-0.4321803 0.300107-0.5631097 0.56697-0.7871094 0.90625-0.1752605 0.265459-0.3450014 0.564813-0.5117187 0.857422-0.3525824-0.637621-0.7019069-1.323458-1.4140625-1.783203-0.6330546-0.4086795-1.3402409-0.5001207-2.015625-0.6132811 0.4826419-0.5182757 1.0124643-1.0479315 1.2441406-1.8398438 0.2242937-0.7666769 0.0880659-1.4636112-0.0214844-2.1210937 0.6607914 0.2200757 1.3751648 0.4628906 2.15625 0.4628906 0.8058427 0 1.5682473-0.2463393 2.2636719-0.4726562z" style="fill-rule:evenodd;fill:#ffffff"/>
</svg>
